X: 41089
T: Trip To Pakistan, The
R: reel
M: 4/4
K: Eminor
|:EGBE GGGB|GAAG FGAF|EGBE GGGB|AGFG EEED:|
|:EGBG c3 A|BBBd AGFG|EGBG c3 A|BAGB A4:|
|:FGBF GBGF|EFGE FGFE|DFAD FADF|AGFG EEE z:|

